alura/assets/api/cursos/github-publicar-proyectos-ciencia-de-datos.svg

<svg width="50" height="50" viewBox="0 0 50 50" fill="none" xmlns="http://www.w3.org/2000/svg">
<path d="M47.0998 25.5001L46.5998 21.5001L29.4998 3.9001L25.0998 2.1001C20.9998 2.1001 7.2998 15.0001 7.2998 17.6001L2.9998 21.6001L2.7998 27.5001L16.9998 42.0001L41.7998 33.2001C42.3998 32.9001 47.9998 27.2001 47.1998 25.6001L47.0998 25.5001Z" fill="#C3FF68"/>
<path d="M29.0998 44.7999C26.6998 47.1999 22.7998 47.1999 20.3998 44.7999L4.0998 28.5999C1.6998 26.1999 1.6998 22.2999 4.0998 19.8999L20.2998 3.6999C22.6998 1.2999 26.5998 1.2999 28.9998 3.6999L45.1998 19.8999C47.5998 22.2999 47.5998 26.1999 45.1998 28.5999L37.7998 35.9999" stroke="#444444" stroke-width="2.5" stroke-linecap="round" stroke-linejoin="round"/>
<path d="M24.3933 28.2029C32.0359 23.2398 37.0122 17.3389 35.5082 15.023C34.0042 12.7071 26.5895 14.8531 18.947 19.8162C11.3044 24.7793 6.3281 30.6802 7.83208 32.9961C9.33606 35.312 16.7508 33.166 24.3933 28.2029Z" stroke="#444444" stroke-linecap="round" stroke-linejoin="round"/>
<path d="M35.4912 32.9786C36.9911 30.6601 32.0045 24.7679 24.3533 19.8181C16.7021 14.8683 9.28368 12.7353 7.78374 15.0539C6.28381 17.3724 11.2704 23.2645 18.9216 28.2143C26.5728 33.1641 33.9913 35.2972 35.4912 32.9786Z" stroke="#444444" stroke-linecap="round" stroke-linejoin="round"/>
<path d="M21.6997 40.5C24.4611 40.5 26.6997 33.1127 26.6997 24C26.6997 14.8873 24.4611 7.5 21.6997 7.5C18.9383 7.5 16.6997 14.8873 16.6997 24C16.6997 33.1127 18.9383 40.5 21.6997 40.5Z" stroke="#444444" stroke-linecap="round" stroke-linejoin="round"/>
<path d="M21.6996 27.8997C22.3071 27.8997 22.7996 26.2879 22.7996 24.2997C22.7996 22.3115 22.3071 20.6997 21.6996 20.6997C21.0921 20.6997 20.5996 22.3115 20.5996 24.2997C20.5996 26.2879 21.0921 27.8997 21.6996 27.8997Z" stroke="#444444" stroke-width="0.5" stroke-linecap="round" stroke-linejoin="round"/>
<path d="M29.8999 3.8999V40.3999C29.8999 41.4999 28.7999 42.3999 27.5999 42.3999H16.8999" stroke="#444444" stroke-width="0.5" stroke-linecap="round" stroke-linejoin="round"/>
<path d="M41.3997 31.9998L37.5997 27.3998C35.8997 25.2998 35.8997 22.4998 37.5997 21.1998L42.6997 17.2998" stroke="#444444" stroke-width="0.5" stroke-linecap="round" stroke-linejoin="round"/>
<path d="M45.3999 27.8999L20.8999 3.3999" stroke="#444444" stroke-width="0.5" stroke-miterlimit="10"/>
</svg>

<svg xmlns="http://www.w3.org/2000/svg" fill="none" viewBox="0 0 50 50"><path fill="#C3FF68" d="M47.1 25.5l-.5-4L29.5 3.9l-4.4-1.8C21 2.1 7.3 15 7.3 17.6l-4.3 4-.2 5.9L17 42l24.8-8.8c.6-.3 6.2-6 5.4-7.6l-.1-.1z"/><path stroke="#444" stroke-linecap="round" stroke-linejoin="round" stroke-width="2.5" d="M29.1 44.8c-2.4 2.4-6.3 2.4-8.7 0L4.1 28.6c-2.4-2.4-2.4-6.3 0-8.7L20.3 3.7c2.4-2.4 6.3-2.4 8.7 0l16.2 16.2c2.4 2.4 2.4 6.3 0 8.7L37.8 36"/><path stroke="#444" stroke-linecap="round" stroke-linejoin="round" d="M24.393 28.203c7.643-4.963 12.62-10.864 11.115-13.18-1.504-2.316-8.919-.17-16.561 4.793C11.304 24.78 6.328 30.68 7.832 32.996c1.504 2.316 8.919.17 16.561-4.793z"/><path stroke="#444" stroke-linecap="round" stroke-linejoin="round" d="M35.491 32.979c1.5-2.319-3.486-8.211-11.138-13.16-7.65-4.95-15.07-7.084-16.57-4.765-1.5 2.318 3.487 8.21 11.139 13.16 7.65 4.95 15.07 7.083 16.57 4.765z"/><path stroke="#444" stroke-linecap="round" stroke-linejoin="round" d="M21.7 40.5c2.761 0 5-7.387 5-16.5s-2.239-16.5-5-16.5c-2.762 0-5 7.387-5 16.5s2.238 16.5 5 16.5z"/><path stroke="#444" stroke-linecap="round" stroke-linejoin="round" stroke-width=".5" d="M21.7 27.9c.607 0 1.1-1.612 1.1-3.6 0-1.989-.493-3.6-1.1-3.6-.608 0-1.1 1.611-1.1 3.6 0 1.988.492 3.6 1.1 3.6z"/><path stroke="#444" stroke-linecap="round" stroke-linejoin="round" stroke-width=".5" d="M29.9 3.9v36.5c0 1.1-1.1 2-2.3 2H16.9M41.4 32l-3.8-4.6c-1.7-2.1-1.7-4.9 0-6.2l5.1-3.9"/><path stroke="#444" stroke-miterlimit="10" stroke-width=".5" d="M45.4 27.9L20.9 3.4"/></svg>
